X:1
T:Title
%%score { ( 1 4 ) | ( 2 3 ) }
L:1/8
M:3/4
K:G
V:1 treble nm="Grand Piano"
V:4 treble 
V:2 bass 
V:3 bass 
V:1
 z2 z2[Q:1/4=94] G>A | B3 G (3[E-A][EG]E | D G3 GB | d3 B (3[^C-G-B][CG][CG] |[M:2/4] [DFA]4 | %5
[M:1/4] [B,DG]>[CDA] |[M:3/4] [DB]3 [B,DG] (3[C-E-A][CEG]E | D G3 GB | d3 B [GB]>[FA] |[M:2/4] G4 | %10
[M:1/4] B>B |[M:3/4] [FA]3 [GB] [Ac]>[Ac] | [DAc] [DGB]3 [DB][DA] | [EG]3 [EG] [EA]>[E_B] | %14
 [^DB]6 |[M:1/4] B>B |[M:3/4] B3 d GA | B>A [DGB]2 (3[^C-E-A][CE][G,=CE] | %18
 [G,B,D] [B,DG]3 [DGB]>[CFA] | [B,G]6 |[M:15/16] [Ec][Ec]/- [Ec]3- [Ec] z/ z3/2 | %21
 z3/2 z3/2 z3/2 z A/ z3/2 | %22
[M:3/4] [G,B,D] [B,DG]3 [DGB]>[CFA][Q:1/4=93][Q:1/4=91][Q:1/4=90][Q:1/4=88][Q:1/4=87][Q:1/4=86][Q:1/4=84][Q:1/4=83][Q:1/4=82][Q:1/4=80][Q:1/4=79][Q:1/4=77][Q:1/4=76] | %23
[M:2/4] [B,G]4[Q:1/4=75][Q:1/4=73][Q:1/4=72] |] %24
V:2
 z2 z2 [G,B,D]>[G,CD] | [G,D]3 [G,B,D] (3:2:2[C,C]2 [C,G,C] | %2
 [G,B,][K:treble] [G,B,D]3 [G,B,D][G,B,D] | [G,B,D]3 [G,DG][K:bass] (3E,-[E,A]E, |[M:2/4] D,4 | %5
[M:1/4] G,>G, |[M:3/4] G,3 G, (3:2:2C,2 [C,G,C] | [G,B,] [G,B,D]3 [G,B,][K:treble][G,B,G] | %8
 [G,B,G]3 [G,DG][K:bass] [D,D]>[D,C] |[M:2/4] [G,B,]4 |[M:1/4][K:treble] [G,DG]>[G,DG] | %11
[M:3/4][K:bass] [D,D]3 [D,D] [D,D]>[D,D] | G, G,3 G,B,, | [C,C]3 [C,C] [C,C]>[C,E,] | [B,,F,]6 | %15
[M:1/4][K:treble] [G,D]>[G,DG] |[M:3/4] [G,DG]3 [G,B,G] [G,B,][G,CG] | D2[K:bass] z2 z2 | %18
 D, D,3 D,>D, | G,6 |[M:15/16] [C,G,][C,G,]/- [C,G,]3- [C,G,] z/ z3/2 | G,G,/- G,3- G, z/ GC,/ | %22
[M:3/4] D, D,3 D,>D, |[M:2/4] G,4 |] %24
V:3
 x6 | x6 | x[K:treble] x5 | x4[K:bass] x2 |[M:2/4] x4 |[M:1/4] x2 |[M:3/4] x6 | x5[K:treble] x | %8
 x4[K:bass] x2 |[M:2/4] x4 |[M:1/4][K:treble] x2 |[M:3/4][K:bass] x6 | x6 | x6 | x6 | %15
[M:1/4][K:treble] x2 |[M:3/4] x6 | [G,G]->[G,^CG][K:bass] G,2 (3C,-[C,G]C, | x6 | x6 | %20
[M:15/16] x15/2 | z3/2 z3/2 z3/2 z C,/-C, z/ |[M:3/4] x6 |[M:2/4] x4 |] %24
V:4
 x6 | x6 | x6 | x6 |[M:2/4] x4 |[M:1/4] x2 |[M:3/4] x6 | x6 | x6 |[M:2/4] x4 |[M:1/4] x2 | %11
[M:3/4] x6 | x6 | x6 | x6 |[M:1/4] x2 |[M:3/4] x6 | x6 | x6 | x6 |[M:15/16] x15/2 | %21
 [DGB][DGB]/- [DGB]3- [DGB][CE]/-[CE][G,CE]/ |[M:3/4] x6 |[M:2/4] x4 |] %24

